X: 25945
T: Maurice O'Keeffe's
R: polka
M: 2/4
K: Dmajor
|:Ad ce|df ef/g/|ae ce|dc BA|
Ad ce|df ef/g/|ae c/d/e/c/|d2 d2:|
|:f2 fe/f/|gf ef/g/|ae ce|dc BA|
f2 fe/f/|gf ef/g/|ae c/d/e/c/|d2 d2:|

